X: 27
T: the World Turned Upside Down   [C]
T: When the King Receives His Own Again
O: England 1632
M: C|
L: 1/8
Z: 2006 John Chambers <jc:trillian.mit.edu>
K: C
   BA \
| "C"G2 G2 c2 c2 | "G7"defg "C"e2 de | "F"f2 A2 B2 e2 | "G7"d3 B G4 \
| "C"G2 G2 c2 c2 | "G7"defg "Am"e2 de | "Dm"f2 A2 "G7"B2 e2 | "G7"d3 c "C"c2 :|
|: c2 \
| "G"d2 Bc d2 G2 | "G"dcde d2 G2 | "G"dcde d2 cB | "D7"A3 G "G"G4 \
| "C"g2-gf e2 dc | "Dm"defg "Am"e2 de | "Dm"f2 A2 "G7"B2 e2 | "G7"d3 c "C"c2 :|

